Badges/Community/GitHub/link-github.svg

<svg width="101" height="32" viewBox="0 0 101 32" fill="none" xmlns="http://www.w3.org/2000/svg">
<g filter="url(#filter0_i_25_92)">
<rect width="101" height="31.6038" rx="4" fill="black"/>
<path d="M18 8C13.58 8 10 11.582 10 16C10 19.5353 12.292 22.5333 15.47 23.59C15.87 23.6653 16.0167 23.418 16.0167 23.2053C16.0167 23.0153 16.01 22.512 16.0067 21.8453C13.7813 22.328 13.312 20.772 13.312 20.772C12.948 19.8487 12.422 19.602 12.422 19.602C11.6973 19.106 12.478 19.116 12.478 19.116C13.2813 19.172 13.7033 19.94 13.7033 19.94C14.4167 21.1633 15.576 20.81 16.0333 20.6053C16.1053 20.088 16.3113 19.7353 16.54 19.5353C14.7633 19.3353 12.896 18.6473 12.896 15.582C12.896 14.7087 13.206 13.9953 13.7193 13.4353C13.6293 13.2333 13.3593 12.42 13.7893 11.318C13.7893 11.318 14.4593 11.1033 15.9893 12.138C16.6293 11.96 17.3093 11.872 17.9893 11.868C18.6693 11.872 19.3493 11.96 19.9893 12.138C21.5093 11.1033 22.1793 11.318 22.1793 11.318C22.6093 12.42 22.3393 13.2333 22.2593 13.4353C22.7693 13.9953 23.0793 14.7087 23.0793 15.582C23.0793 18.6553 21.2093 19.332 19.4293 19.5287C19.7093 19.7687 19.9693 20.2593 19.9693 21.0087C19.9693 22.0793 19.9593 22.9393 19.9593 23.1993C19.9593 23.4093 20.0993 23.6593 20.5093 23.5793C23.71 22.53 26 19.53 26 16C26 11.582 22.418 8 18 8Z" fill="white"/>
<path d="M38.169 19.9119C36.123 19.9119 34.33 18.6359 34.33 15.9519C34.33 13.4879 36.035 11.9919 38.114 11.9919C39.302 11.9919 40.424 12.4869 41.095 13.4439L40.072 14.4229C39.489 13.7189 38.928 13.4439 38.158 13.4439C36.816 13.4439 35.859 14.3239 35.859 15.9519C35.859 17.6239 36.86 18.4819 38.169 18.4819C38.763 18.4819 39.214 18.3499 39.588 18.1299V17.0739H38.048V15.7099H41.084V18.8999C40.424 19.4059 39.533 19.9119 38.169 19.9119ZM42.353 19.8019V13.9939H43.761V19.8019H42.353ZM42.32 13.3229V11.8489H43.794V13.3229H42.32ZM47.5864 19.9119C46.3324 19.9119 45.5734 19.2519 45.5734 18.0089V15.1929H44.6274V13.9939H45.5734V12.5749H46.9814V13.9939H48.6094V15.1929H46.9814V17.8219C46.9814 18.3279 47.3334 18.6249 47.9054 18.6249C48.1804 18.6249 48.4334 18.5809 48.7304 18.4929V19.7029C48.4224 19.8349 48.0044 19.9119 47.5864 19.9119ZM49.7774 19.8019V12.1019H51.2734V15.1269H54.6174V12.1019H56.1134V19.8019H54.6174V16.5789H51.2734V19.8019H49.7774ZM59.4439 19.9119C58.2669 19.9119 57.5519 19.0429 57.5519 17.7669V13.9939H58.9599V17.2719C58.9599 18.2619 59.3669 18.6139 59.9939 18.6139C60.5109 18.6139 61.0279 18.2839 61.2479 17.8329V13.9939H62.6559V19.8019H61.2479V18.9769L61.0719 18.9109C60.7529 19.5159 60.2689 19.9119 59.4439 19.9119ZM67.2519 19.9119C66.4489 19.9119 66.0089 19.6479 65.6899 19.2519L65.5139 19.3179V19.8019H64.1059V11.9919H65.5139V14.8189L65.6899 14.8849C65.9759 14.2799 66.5039 13.8839 67.3729 13.8839C68.7589 13.8839 69.7269 14.9839 69.7269 16.7769C69.7269 18.8009 68.6489 19.9119 67.2519 19.9119ZM66.9219 18.6139C67.6699 18.6139 68.2969 17.9649 68.2969 16.7879C68.2969 15.6109 67.6699 15.1819 66.9109 15.1819C66.2839 15.1819 65.7779 15.5119 65.5139 15.9519V17.9319C65.7889 18.2949 66.1849 18.6139 66.9219 18.6139Z" fill="white"/>
<path d="M84.625 10.9894C84.7812 10.9894 84.9141 11.0441 85.0234 11.1535C85.1328 11.2628 85.1875 11.3957 85.1875 11.5519C85.1875 11.7082 85.1328 11.841 85.0234 11.9503C84.9141 12.0597 84.7812 12.1144 84.625 12.1144H81.0625V19.9894H88.9375V16.4269C88.9375 16.2707 88.9922 16.1378 89.1016 16.0285C89.2109 15.9191 89.3438 15.8644 89.5 15.8644C89.6562 15.8644 89.7891 15.9191 89.8984 16.0285C90.0078 16.1378 90.0625 16.2707 90.0625 16.4269V20.1769C90.0625 20.3449 90.0195 20.5011 89.9336 20.6457C89.8516 20.7902 89.7383 20.9035 89.5938 20.9855C89.4492 21.0714 89.293 21.1144 89.125 21.1144H80.875C80.707 21.1144 80.5508 21.0714 80.4062 20.9855C80.2617 20.9035 80.1465 20.7902 80.0605 20.6457C79.9785 20.5011 79.9375 20.3449 79.9375 20.1769V11.9269C79.9375 11.7589 79.9785 11.6027 80.0605 11.4582C80.1465 11.3136 80.2617 11.2003 80.4062 11.1183C80.5508 11.0324 80.707 10.9894 80.875 10.9894H84.625ZM89.5 10.9894C89.6562 10.9894 89.7891 11.0441 89.8984 11.1535C90.0078 11.2628 90.0625 11.3957 90.0625 11.5519V13.8019C90.0625 13.9582 90.0078 14.091 89.8984 14.2003C89.7891 14.3097 89.6562 14.3644 89.5 14.3644C89.3438 14.3644 89.2109 14.3097 89.1016 14.2003C88.9922 14.091 88.9375 13.9582 88.9375 13.8019V12.9113L85.3984 16.4503C85.2891 16.5597 85.1562 16.6144 85 16.6144C84.8438 16.6144 84.7109 16.5597 84.6016 16.4503C84.4922 16.341 84.4375 16.2082 84.4375 16.0519C84.4375 15.8957 84.4922 15.7628 84.6016 15.6535L88.1406 12.1144H87.25C87.0938 12.1144 86.9609 12.0597 86.8516 11.9503C86.7422 11.841 86.6875 11.7082 86.6875 11.5519C86.6875 11.3957 86.7422 11.2628 86.8516 11.1535C86.9609 11.0441 87.0938 10.9894 87.25 10.9894H89.5Z" fill="white"/>
</g>
<defs>
<filter id="filter0_i_25_92" x="0" y="-2" width="101" height="33.6038" filterUnits="userSpaceOnUse" color-interpolation-filters="sRGB">
<feFlood flood-opacity="0" result="BackgroundImageFix"/>
<feBlend mode="normal" in="SourceGraphic" in2="BackgroundImageFix" result="shape"/>
<feColorMatrix in="SourceAlpha" type="matrix" values="0 0 0 0 0 0 0 0 0 0 0 0 0 0 0 0 0 0 127 0" result="hardAlpha"/>
<feOffset dy="-2"/>
<feGaussianBlur stdDeviation="1.65"/>
<feComposite in2="hardAlpha" operator="arithmetic" k2="-1" k3="1"/>
<feColorMatrix type="matrix" values="0 0 0 0 1 0 0 0 0 1 0 0 0 0 1 0 0 0 0.11 0"/>
<feBlend mode="normal" in2="shape" result="effect1_innerShadow_25_92"/>
</filter>
</defs>
</svg>

<svg xmlns="http://www.w3.org/2000/svg" width="101" height="32" fill="none">
  <g filter="url(#a)">
    <rect width="101" height="31.604" fill="#000" rx="4"/>
    <path fill="#fff" d="M18 8a8 8 0 0 0-8 8 8 8 0 0 0 5.47 7.59c.4.075.547-.172.547-.385 0-.19-.007-.693-.01-1.36-2.226.483-2.695-1.073-2.695-1.073-.364-.923-.89-1.17-.89-1.17-.725-.496.056-.486.056-.486.803.056 1.225.824 1.225.824.714 1.223 1.873.87 2.33.665.072-.517.278-.87.507-1.07-1.777-.2-3.644-.888-3.644-3.953 0-.873.31-1.587.823-2.147-.09-.202-.36-1.015.07-2.117 0 0 .67-.215 2.2.82a7.7 7.7 0 0 1 2-.27 7.7 7.7 0 0 1 2 .27c1.52-1.035 2.19-.82 2.19-.82.43 1.102.16 1.915.08 2.117a3.1 3.1 0 0 1 .82 2.147c0 3.073-1.87 3.75-3.65 3.947.28.24.54.73.54 1.48 0 1.07-.01 1.93-.01 2.19 0 .21.14.46.55.38A7.97 7.97 0 0 0 26 16a8 8 0 0 0-8-8m20.169 11.912c-2.046 0-3.839-1.276-3.839-3.96 0-2.464 1.705-3.96 3.784-3.96 1.188 0 2.31.495 2.981 1.452l-1.023.979c-.583-.704-1.144-.98-1.914-.98-1.342 0-2.299.88-2.299 2.509 0 1.672 1.001 2.53 2.31 2.53.594 0 1.045-.132 1.419-.352v-1.056h-1.54V15.71h3.036v3.19c-.66.506-1.551 1.012-2.915 1.012m4.184-.11v-5.808h1.408v5.808zm-.033-6.48V11.85h1.474v1.474zm5.266 6.59c-1.254 0-2.013-.66-2.013-1.903v-2.816h-.946v-1.2h.946v-1.418h1.408v1.419h1.628v1.199h-1.628v2.629c0 .506.352.803.924.803.275 0 .528-.044.825-.132v1.21c-.308.132-.726.209-1.144.209m2.191-.11v-7.7h1.496v3.025h3.344v-3.025h1.496v7.7h-1.496v-3.223h-3.344v3.223zm9.667.11c-1.177 0-1.892-.87-1.892-2.145v-3.773h1.408v3.278c0 .99.407 1.342 1.034 1.342.517 0 1.034-.33 1.254-.781v-3.84h1.408v5.809h-1.408v-.825l-.176-.066c-.32.605-.803 1-1.628 1m7.808 0c-.803 0-1.243-.264-1.562-.66l-.176.066v.484h-1.408v-7.81h1.408v2.827l.176.066c.286-.605.814-1.001 1.683-1.001 1.386 0 2.354 1.1 2.354 2.893 0 2.024-1.078 3.135-2.475 3.135m-.33-1.298c.748 0 1.375-.65 1.375-1.826s-.627-1.606-1.386-1.606c-.627 0-1.133.33-1.397.77v1.98c.275.363.67.682 1.408.682m17.703-7.623q.235 0 .398.163.165.165.165.399t-.165.398a.54.54 0 0 1-.398.164h-3.562v7.875h7.874v-3.562q0-.235.165-.398a.54.54 0 0 1 .398-.165q.235 0 .398.165.165.164.165.398v3.75a.9.9 0 0 1-.13.469.9.9 0 0 1-.34.34.9.9 0 0 1-.468.128h-8.25a.9.9 0 0 1-.469-.129.93.93 0 0 1-.346-.34.93.93 0 0 1-.123-.468v-8.25q0-.252.124-.469a.93.93 0 0 1 .345-.34.9.9 0 0 1 .469-.129zm4.875 0q.235 0 .398.163.165.165.165.399v2.25q0 .234-.165.398a.54.54 0 0 1-.398.164.54.54 0 0 1-.398-.164.54.54 0 0 1-.165-.398v-.89l-3.539 3.538a.54.54 0 0 1-.398.164.54.54 0 0 1-.398-.164.54.54 0 0 1-.165-.398q0-.235.165-.399l3.539-3.539h-.891a.54.54 0 0 1-.398-.164.54.54 0 0 1-.165-.398q0-.235.165-.399a.54.54 0 0 1 .398-.164z"/>
  </g>
  <defs>
    <filter id="a" width="101" height="33.604" x="0" y="-2" color-interpolation-filters="sRGB" filterUnits="userSpaceOnUse">
      <feFlood flood-opacity="0" result="BackgroundImageFix"/>
      <feBlend in="SourceGraphic" in2="BackgroundImageFix" result="shape"/>
      <feColorMatrix in="SourceAlpha" result="hardAlpha" values="0 0 0 0 0 0 0 0 0 0 0 0 0 0 0 0 0 0 127 0"/>
      <feOffset dy="-2"/>
      <feGaussianBlur stdDeviation="1.65"/>
      <feComposite in2="hardAlpha" k2="-1" k3="1" operator="arithmetic"/>
      <feColorMatrix values="0 0 0 0 1 0 0 0 0 1 0 0 0 0 1 0 0 0 0.11 0"/>
      <feBlend in2="shape" result="effect1_innerShadow_25_92"/>
    </filter>
  </defs>
</svg>
